Newaita-dark/.LP/scalable/ac-adapter.svg

<svg xmlns="http://www.w3.org/2000/svg" xmlns:xlink="http://www.w3.org/1999/xlink" width="512px" height="512px" viewBox="0 0 512 512" version="1.1">
<g id="surface1">
<path style=" stroke:none;fill-rule:nonzero;fill:rgb(25.882354%,25.882354%,25.882354%);fill-opacity:1;" d="M 248.734375 115.140625 C 327.640625 115.140625 391.625 179.109375 391.625 258.03125 C 391.625 336.9375 327.640625 400.90625 248.734375 400.90625 C 169.8125 400.90625 105.84375 336.9375 105.84375 258.03125 C 105.84375 179.109375 169.8125 115.140625 248.734375 115.140625 Z M 248.734375 115.140625 "/>
<path style=" stroke:none;fill-rule:evenodd;fill:rgb(100%,70.19608%,0%);fill-opacity:1;" d="M 269.90625 162.765625 L 185.21875 258.03125 L 248.734375 279.1875 L 238.140625 353.28125 L 312.234375 258.03125 L 248.734375 236.859375 Z M 269.90625 162.765625 "/>
</g>
</svg>

<svg xmlns="http://www.w3.org/2000/svg" width="512" height="512"><path d="M248.734 115.14c78.907 0 142.891 63.97 142.891 142.891 0 78.906-63.984 142.875-142.89 142.875-78.923 0-142.891-63.969-142.891-142.875 0-78.922 63.969-142.89 142.89-142.89zm0 0" fill="#424242"/><path d="M269.906 162.766L185.22 258.03l63.515 21.156-10.593 74.094 74.093-95.25-63.5-21.172zm0 0" fill-rule="evenodd" fill="#ffb300"/></svg>
